images/logo-light.svg

<svg width="138" height="16" viewBox="0 0 138 16" fill="none" xmlns="http://www.w3.org/2000/svg">
<path d="M2.16387 5.79134L0 7.8853L2.16387 9.98658L4.32775 7.8853L2.16387 5.79134Z" fill="white"/>
<path d="M135.559 5.795L133.395 7.8853L135.566 9.98658L137.726 7.8853L135.559 5.795Z" fill="white"/>
<path fill-rule="evenodd" clip-rule="evenodd" d="M20.9259 7.03117C21.0341 6.81075 21.0899 6.56975 21.0893 6.32581V1.66931C21.0853 1.22777 20.902 0.805389 20.5787 0.493158C20.2555 0.180926 19.8183 0.00382742 19.3612 4.02413e-06H13.4342V15.7816H19.365C19.8209 15.774 20.2559 15.5958 20.5783 15.2843C20.9007 14.9729 21.0852 14.5526 21.093 14.1123V8.95058C21.0869 8.69623 21.0281 8.44565 20.9201 8.21364C20.812 7.98162 20.6569 7.77288 20.464 7.59976C20.6599 7.44586 20.8177 7.25159 20.9259 7.03117ZM16.2347 2.70531H18.266V6.51617H16.2347V2.70531ZM16.2347 9.22148H18.266V13.0543H16.2347V9.22148Z" fill="white"/>
<path fill-rule="evenodd" clip-rule="evenodd" d="M33.0883 0.493158C32.7651 0.180926 32.3278 0.00382742 31.8707 4.02413e-06H27.6642C27.4372 -0.000478117 27.2122 0.0423692 27.0024 0.126089C26.7925 0.209808 26.6018 0.332752 26.4412 0.487858C26.2806 0.642962 26.1534 0.827178 26.0667 1.02992C25.98 1.23267 25.9357 1.44996 25.9362 1.66931V14.1159C25.9401 14.5575 26.1235 14.9798 26.4467 15.2921C26.7699 15.6043 27.2072 15.7814 27.6642 15.7852H31.8707C32.3266 15.7777 32.7616 15.5994 33.084 15.288C33.4064 14.9765 33.591 14.5563 33.5988 14.1159V1.66931C33.5948 1.22777 33.4115 0.805389 33.0883 0.493158ZM28.7443 2.70531H30.7717L30.7755 13.0543H28.7443V2.70531Z" fill="white"/>
<path fill-rule="evenodd" clip-rule="evenodd" d="M42.3339 9.22148L43.4708 15.7816H46.2637L45.0965 9.06406C45.3927 8.93481 45.6442 8.72596 45.8209 8.46242C45.9977 8.19888 46.0922 7.89179 46.0932 7.57779V1.66931C46.0947 1.45154 46.0518 1.23561 45.9669 1.03386C45.882 0.832105 45.7568 0.648481 45.5984 0.49347C45.4401 0.33846 45.2516 0.215098 45.0439 0.130428C44.8362 0.0457596 44.6133 0.00144061 44.3878 4.02413e-06H38.4609V15.7816H41.2614V9.22148H42.3339ZM41.2538 2.70531H43.2851V6.51617H41.2538V2.70531Z" fill="white"/>
<path fill-rule="evenodd" clip-rule="evenodd" d="M57.736 0.493158C57.4128 0.180926 56.9755 0.00382742 56.5184 4.02413e-06H52.2968C51.8421 0.00482965 51.4078 0.182946 51.0884 0.495585C50.7691 0.808224 50.5904 1.23008 50.5915 1.66931V14.1159C50.5954 14.5575 50.7787 14.9798 51.102 15.2921C51.4252 15.6043 51.8624 15.7814 52.3195 15.7852H56.5184C56.9743 15.7777 57.4093 15.5994 57.7317 15.288C58.0541 14.9765 58.2387 14.5563 58.2465 14.1159V1.66931C58.2425 1.22777 58.0592 0.805389 57.736 0.493158ZM53.3882 2.70531H55.4194V13.0543H53.3882V2.70531Z" fill="white"/>
<path fill-rule="evenodd" clip-rule="evenodd" d="M70.2455 0.493158C69.9223 0.180926 69.4851 0.00382742 69.028 4.02413e-06H63.101V15.7852H69.028C69.4838 15.7777 69.9189 15.5994 70.2413 15.288C70.5637 14.9765 70.7482 14.5563 70.756 14.1159V1.66931C70.7521 1.22777 70.5687 0.805389 70.2455 0.493158ZM65.9015 2.70531H67.9328V13.0543H65.9015V2.70531Z" fill="white"/>
<path d="M78.5513 4.02413e-06H75.7508V15.7816H78.5513V4.02413e-06Z" fill="white"/>
<path d="M91.0154 15.7816V4.02413e-06H88.2035V6.46858L86.1495 4.02413e-06H83.3717V15.7816H86.1609V8.88834L88.2148 15.7816H91.0154Z" fill="white"/>
<path d="M103.014 7.00932C102.691 6.69709 102.254 6.51999 101.797 6.51617H98.678V2.70531H100.709V5.49482L103.532 4.8615V1.66931C103.529 1.22777 103.345 0.805389 103.022 0.493158C102.699 0.180926 102.261 0.00382742 101.804 4.02413e-06H97.5979C97.3715 0.000483354 97.1474 0.0440419 96.9384 0.128193C96.7293 0.212344 96.5396 0.335438 96.3798 0.490447C96.22 0.645457 96.0934 0.829349 96.0072 1.03162C95.921 1.23389 95.8769 1.45058 95.8774 1.66931V7.55949C95.8779 7.77823 95.923 7.99472 96.0101 8.19663C96.0973 8.39853 96.2247 8.58188 96.3851 8.73621C96.5456 8.89054 96.736 9.01283 96.9454 9.09609C97.1548 9.17935 97.3791 9.22196 97.6055 9.22148H100.709V13.058H98.678V10.2392L95.8774 10.8688V14.1159C95.8814 14.5562 96.0637 14.9775 96.3852 15.2895C96.7068 15.6016 97.1422 15.7795 97.5979 15.7852H101.797C102.253 15.7777 102.688 15.5994 103.01 15.288C103.333 14.9765 103.517 14.5563 103.525 14.1159V8.18548C103.521 7.74393 103.338 7.32156 103.014 7.00932Z" fill="white"/>
<path d="M116.387 15.7852L113.772 7.87065L116.41 4.02413e-06H113.564L111.415 6.51617H111.184V4.02413e-06H108.383V15.7816H111.184V9.22513H111.441L113.541 15.6937L113.564 15.7852H116.387Z" fill="white"/>
<path d="M123.773 4.02413e-06H120.972V15.7816H123.773V4.02413e-06Z" fill="white"/>
</svg>

<svg xmlns="http://www.w3.org/2000/svg" width="138" height="16" fill="none" viewBox="0 0 138 16"><path fill="#fff" d="M2.16 5.8 0 7.88l2.16 2.1 2.17-2.1-2.17-2.1ZM135.56 5.8l-2.16 2.09 2.17 2.1 2.16-2.1-2.17-2.1Z"/><path fill="#fff" fill-rule="evenodd" d="M20.93 7.03c.1-.22.16-.46.16-.7V1.67c0-.44-.19-.86-.51-1.18A1.77 1.77 0 0 0 19.36 0h-5.93v15.78h5.93c.46 0 .9-.18 1.22-.5.32-.3.5-.73.51-1.17V8.95a1.85 1.85 0 0 0-.63-1.35c.2-.15.36-.35.47-.57Zm-4.7-4.32h2.04v3.8h-2.04v-3.8Zm0 6.51h2.04v3.83h-2.04V9.22ZM33.09.5a1.77 1.77 0 0 0-1.22-.5h-4.2a1.78 1.78 0 0 0-1.23.49 1.66 1.66 0 0 0-.5 1.18v12.45c0 .44.18.86.5 1.17.33.31.77.5 1.22.5h4.21c.46-.01.9-.2 1.21-.5.33-.31.51-.73.52-1.17V1.67c0-.44-.19-.86-.51-1.18Zm-4.35 2.2h2.03v10.35h-2.03V2.71ZM42.33 9.22l1.14 6.56h2.8L45.1 9.06c.3-.13.54-.33.72-.6.18-.26.27-.57.27-.88V1.67a1.6 1.6 0 0 0-.5-1.18A1.72 1.72 0 0 0 44.4 0h-5.93v15.78h2.8V9.22h1.07Zm-1.08-6.51h2.04v3.8h-2.04v-3.8ZM57.74.5a1.77 1.77 0 0 0-1.22-.5H52.3c-.46 0-.9.18-1.21.5-.32.3-.5.73-.5 1.17v12.45c0 .44.19.86.51 1.17.33.31.76.5 1.22.5h4.2c.45-.01.89-.2 1.21-.5.32-.31.5-.73.52-1.17V1.67c0-.44-.2-.86-.51-1.18Zm-4.35 2.2h2.03v10.35h-2.03V2.71ZM70.25.5a1.77 1.77 0 0 0-1.22-.5H63.1v15.79h5.93c.45-.01.89-.2 1.21-.5.32-.31.5-.73.52-1.17V1.67c0-.44-.2-.86-.51-1.18ZM65.9 2.7h2.03v10.35H65.9V2.71Z" clip-rule="evenodd"/><path fill="#fff" d="M78.55 0h-2.8v15.78h2.8V0ZM91.02 15.78V0H88.2v6.47L86.15 0h-2.78v15.78h2.8v-6.9l2.04 6.9h2.8ZM103.01 7a1.77 1.77 0 0 0-1.21-.48h-3.12V2.7h2.03v2.78l2.82-.63v-3.2c0-.43-.19-.85-.5-1.17A1.78 1.78 0 0 0 101.8 0h-4.2a1.78 1.78 0 0 0-1.22.49 1.66 1.66 0 0 0-.5 1.18v5.89a1.62 1.62 0 0 0 .5 1.18 1.73 1.73 0 0 0 1.23.48h3.1v3.84h-2.03v-2.82l-2.8.63v3.25c0 .44.18.86.5 1.17.33.31.76.49 1.22.5h4.2c.45-.01.89-.2 1.21-.5.32-.31.5-.73.52-1.17V8.19c0-.45-.2-.87-.52-1.18ZM116.39 15.79l-2.62-7.92L116.41 0h-2.85l-2.14 6.52h-.24V0h-2.8v15.78h2.8V9.23h.26l2.1 6.46.02.1h2.83ZM123.77 0h-2.8v15.78h2.8V0Z"/></svg>
